X:52
T:Little Beggarman, The
S:The Session: https://thesession.org/tunes/566#setting55358
C:Traditional
R:hornpipe
K:Amix
M:4/4
L:1/8
Q:1/4=138
AG|:"A"E2A2 ABcd|efec "D"d2cd|"A"e2A2 ABcA|"Em"BGEF G2 AG|
|"A"E2A2 ABcd|efec "D"d2cd|"A"eaab ag"Em"ed|"A"c2A2A2 AG:|
|:"Em"gfga gfef|gfec "G"d2cd|"A"edcB ABcA|"Em"BGEF G2AG|
|"A"E2AG A2 cd|efec "D"d2cd|"A"eaab ag"Em"ed|1"A"c2 A2 A2 ef:|2"A"c2 A2 A4||

